static/assets/template/assets/img/icons/essential/detailed/Cart_Add.svg

<svg height="132" viewBox="0 0 153 132" width="153" xmlns="http://www.w3.org/2000/svg"><g fill="none" fill-rule="evenodd" transform="translate(2 2)"><g stroke-linecap="round" stroke-linejoin="round" stroke-width="3" transform="translate(16 127)"><path d="m1.7.7h-1.1"/><path d="m95.4.7h-87.5"/><path d="m126.3.7h-25.9"/><path d="m132.6.7h-1.8"/></g><path d="m133.1 33.9c-1.7-2.4-4.4-3.7-7.3-3.7 0 0 0 0-.1 0h-79.6c-2.6 0-4.7 2.1-4.7 4.7s2.1 4.7 4.7 4.7h79.4l-9.6 31c-.7 2.2-2.7 3.6-4.9 3.6h-66l-19-62.7c-1.3-4.2-5.1-7.1-9.6-7.1h-11.4c-2.6 0-4.7 2.1-4.7 4.7s2.1 4.7 4.7 4.7h11.5c.3 0 .6.2.7.5l23 75.7c1.8 5.8 7.2 9.7 13.2 9.7h58.1c2.6 0 4.7-2.1 4.7-4.7s-2.1-4.7-4.7-4.7h-58.1c-2 0-3.8-1.3-4.4-3.2l-1.1-3.6h63.2c6.4 0 11.9-4.1 13.8-10.2l9.6-31.1c.9-3 .4-5.9-1.4-8.3z" fill-rule="nonzero"/><path d="m134.7 41.2c-.1.3-.1.6-.2.9l-9.6 31.1c-1.9 6.1-7.4 10.2-13.8 10.2h-63.1l3 7.3c.6 1.9 2.3 3.2 4.4 3.2h56.3c1.9 0 3.5 1.1 4.3 2.8-.7 1.6-2.4 2.8-4.3 2.8h-58.1c-6.1 0-11.4-3.9-13.3-9.7l-23-75.7c-.1-.3-.4-.5-.7-.5h-11.6c-1.9 0-3.5-1.1-4.3-2.8.7-1.6 2.4-2.8 4.3-2.8h11.5c4.4 0 8.3 2.9 9.6 7.1l19 59h66c2.3 0 4.3-1.5 4.9-3.6l9.6-27.2h-1.2l1.2-3.7h-79.4c-1.9 0-3.6-1.1-4.3-2.8.7-1.6 2.3-2.8 4.3-2.8h79.7c2.9 0 5.6 1.4 7.3 3.7.7 1 1.2 2.2 1.5 3.5z" fill-rule="nonzero"/><g stroke-linecap="round" stroke-linejoin="round" stroke-width="3"><path d="m119.6 39.4h6l-9.6 31c-.7 2.2-2.7 3.6-4.9 3.6h-66l-19-62.7c-1.3-4.2-5.1-7.1-9.6-7.1h-11.5c-2.6 0-4.7 2.1-4.7 4.7s2.1 4.7 4.7 4.7h11.5c.3 0 .6.2.7.5l23 75.7c1.8 5.8 7.2 9.7 13.2 9.7h58.1c2.6 0 4.7-2.1 4.7-4.7s-2.1-4.7-4.7-4.7h-58.1c-2 0-3.8-1.3-4.4-3.2l-1.1-3.6h63.2c6.4 0 11.9-4.1 13.8-10.2l9.6-31.1c.9-2.8.4-5.8-1.4-8.2-1.7-2.4-4.4-3.7-7.3-3.7 0 0 0 0-.1 0h-4.6"/><path d="m47.4 30.1h-1.2c-2.6 0-4.7 2.1-4.7 4.7s2.1 4.7 4.7 4.7h2.7"/><circle cx="55.5" cy="117.2" fill-rule="nonzero" r="10.3"/><circle cx="55.5" cy="117.2" fill-rule="nonzero" r="4.9"/><circle cx="104.9" cy="117.2" fill-rule="nonzero" r="10.3"/><circle cx="104.9" cy="117.2" fill-rule="nonzero" r="4.9"/></g><g transform="translate(54)"><path d="m46.1 55c-4.7 3.1-10.3 4.9-16.3 4.9-16.5 0-29.8-13.3-29.8-29.8s13.3-29.8 29.8-29.8 29.8 13.3 29.8 29.8c0 10.4-5.4 19.5-13.5 24.9" fill-rule="nonzero"/><g stroke-linecap="round" stroke-linejoin="round" stroke-width="3"><path d="m39.1 58.4c-.3.1-.5.1-.8.2-2.7.8-5.6 1.3-8.6 1.3-6.6 0-12.8-2.2-17.7-5.8"/><path d="m.3 34.4c-.2-1.4-.3-2.9-.3-4.4 0-16.5 13.3-29.8 29.8-29.8s29.8 13.3 29.8 29.8c0 9.2-4.2 17.5-10.8 23"/><path d="m5.3 47.1c-.3-.5-.7-1-1-1.5"/></g><g fill-rule="nonzero" transform="translate(15 11)"><path d="m14.7 36.2c-1.1 0-2.2-.5-3-1.3l-8.8-8.8c-.8-.8-1.3-1.9-1.3-3s.4-2.2 1.3-3 1.9-1.3 3-1.3 2.2.4 3 1.3l1.5 1.5v-15.4c0-2.4 1.9-4.3 4.3-4.3s4.3 1.9 4.3 4.3v15.4l1.5-1.5c.8-.8 1.9-1.3 3-1.3s2.2.4 3 1.3c.8.8 1.3 1.9 1.3 3s-.4 2.2-1.3 3l-8.8 8.8c-.7.9-1.8 1.3-3 1.3z"/><path d="m14.7 3.3c1.5 0 2.8 1.3 2.8 2.8v19.1l4-4c.5-.5 1.3-.8 2-.8s1.4.3 2 .8.8 1.3.8 2-.3 1.4-.8 2l-8.8 8.8c-.5.5-1.2.8-2 .8s-1.5-.3-2-.8l-8.8-8.8c-1.1-1.1-1.1-2.9 0-4 .5-.5 1.3-.8 2-.8s1.4.3 2 .8l4 4v-19.1c.1-1.5 1.3-2.8 2.8-2.8zm0-3c-3.2 0-5.8 2.6-5.8 5.8v12.1c-.9-.5-1.9-.8-3-.8-1.5 0-3 .6-4.1 1.7-2.3 2.3-2.3 5.9 0 8.2l8.8 8.8c1.1 1.1 2.6 1.7 4.1 1.7s3-.6 4.1-1.7l8.8-8.8c1.1-1.1 1.7-2.6 1.7-4.1s-.6-3-1.7-4.1-2.6-1.7-4.1-1.7c-1.1 0-2.1.3-3 .8v-12.1c0-3.2-2.6-5.8-5.8-5.8z"/></g></g></g></svg>

<?xml version="1.0" encoding="UTF-8"?>
<svg width="153px" height="132px" viewBox="0 0 153 132" version="1.1" xmlns="http://www.w3.org/2000/svg" xmlns:xlink="http://www.w3.org/1999/xlink">
    <!-- Generator: Sketch 51.2 (57519) - http://www.bohemiancoding.com/sketch -->
    <title>Cart_Add</title>
    <desc>Created with Sketch.</desc>
    <defs></defs>
    <g id="Page-1" stroke="none" stroke-width="1" fill="none" fill-rule="evenodd">
        <g id="Cart_Add" transform="translate(2.000000, 2.000000)">
            <g id="Group" transform="translate(16.000000, 127.000000)" class="stroke-primary-300" stroke-linecap="round" stroke-linejoin="round" stroke-width="3">
                <path d="M1.7,0.7 L0.6,0.7" id="Shape"></path>
                <path d="M95.4,0.7 L7.9,0.7" id="Shape"></path>
                <path d="M126.3,0.7 L100.4,0.7" id="Shape"></path>
                <path d="M132.6,0.7 L130.8,0.7" id="Shape"></path>
            </g>
            <path d="M133.1,33.9 C131.4,31.5 128.7,30.2 125.8,30.2 C125.8,30.2 125.8,30.2 125.7,30.2 L46.1,30.2 C43.5,30.2 41.4,32.3 41.4,34.9 C41.4,37.5 43.5,39.6 46.1,39.6 L125.5,39.6 L115.9,70.6 C115.2,72.8 113.2,74.2 111,74.2 L45,74.2 L26,11.5 C24.7,7.3 20.9,4.4 16.4,4.4 L5,4.4 C2.4,4.4 0.3,6.5 0.3,9.1 C0.3,11.7 2.4,13.8 5,13.8 L16.5,13.8 C16.8,13.8 17.1,14 17.2,14.3 L40.2,90 C42,95.8 47.4,99.7 53.4,99.7 L111.5,99.7 C114.1,99.7 116.2,97.6 116.2,95 C116.2,92.4 114.1,90.3 111.5,90.3 L53.4,90.3 C51.4,90.3 49.6,89 49,87.1 L47.9,83.5 L111.1,83.5 C117.5,83.5 123,79.4 124.9,73.3 L134.5,42.2 C135.4,39.2 134.9,36.3 133.1,33.9 Z" id="Shape" class="fill-neutral" fill-rule="nonzero"></path>
            <path d="M134.7,41.2 C134.6,41.5 134.6,41.8 134.5,42.1 L124.9,73.2 C123,79.3 117.5,83.4 111.1,83.4 L48,83.4 L51,90.7 C51.6,92.6 53.3,93.9 55.4,93.9 L111.7,93.9 C113.6,93.9 115.2,95 116,96.7 C115.3,98.3 113.6,99.5 111.7,99.5 L53.6,99.5 C47.5,99.5 42.2,95.6 40.3,89.8 L17.3,14.1 C17.2,13.8 16.9,13.6 16.6,13.6 L5,13.6 C3.1,13.6 1.5,12.5 0.7,10.8 C1.4,9.2 3.1,8 5,8 L16.5,8 C20.9,8 24.8,10.9 26.1,15.1 L45.1,74.1 L111.1,74.1 C113.4,74.1 115.4,72.6 116,70.5 L125.6,43.3 L124.4,43.3 L125.6,39.6 L46.2,39.6 C44.3,39.6 42.6,38.5 41.9,36.8 C42.6,35.2 44.2,34 46.2,34 L125.9,34 C128.8,34 131.5,35.4 133.2,37.7 C133.9,38.7 134.4,39.9 134.7,41.2 Z" id="Shape" class="fill-primary-200" fill-rule="nonzero"></path>
            <path d="M119.6,39.4 L125.6,39.4 L116,70.4 C115.3,72.6 113.3,74 111.1,74 L45.1,74 L26.1,11.3 C24.8,7.1 21,4.2 16.5,4.2 L5,4.2 C2.4,4.2 0.3,6.3 0.3,8.9 C0.3,11.5 2.4,13.6 5,13.6 L16.5,13.6 C16.8,13.6 17.1,13.8 17.2,14.1 L40.2,89.8 C42,95.6 47.4,99.5 53.4,99.5 L111.5,99.5 C114.1,99.5 116.2,97.4 116.2,94.8 C116.2,92.2 114.1,90.1 111.5,90.1 L53.4,90.1 C51.4,90.1 49.6,88.8 49,86.9 L47.9,83.3 L111.1,83.3 C117.5,83.3 123,79.2 124.9,73.1 L134.5,42 C135.4,39.2 134.9,36.2 133.1,33.8 C131.4,31.4 128.7,30.1 125.8,30.1 C125.8,30.1 125.8,30.1 125.7,30.1 L121.1,30.1" id="Shape" class="stroke-primary" stroke-width="3" stroke-linecap="round" stroke-linejoin="round"></path>
            <path d="M47.4,30.1 L46.2,30.1 C43.6,30.1 41.5,32.2 41.5,34.8 C41.5,37.4 43.6,39.5 46.2,39.5 L48.9,39.5" id="Shape" class="stroke-primary" stroke-width="3" stroke-linecap="round" stroke-linejoin="round"></path>
            <circle id="Oval" stroke-width="3" class="stroke-primary fill-primary-400" fill-rule="nonzero" stroke-linecap="round" stroke-linejoin="round" cx="55.5" cy="117.2" r="10.3"></circle>
            <circle id="Oval" stroke-width="3" class="stroke-primary fill-primary-100" fill-rule="nonzero" stroke-linecap="round" stroke-linejoin="round" cx="55.5" cy="117.2" r="4.9"></circle>
            <circle id="Oval" stroke-width="3" class="stroke-primary fill-primary-400" fill-rule="nonzero" stroke-linecap="round" stroke-linejoin="round" cx="104.9" cy="117.2" r="10.3"></circle>
            <circle id="Oval" stroke-width="3" class="stroke-primary fill-primary-100" fill-rule="nonzero" stroke-linecap="round" stroke-linejoin="round" cx="104.9" cy="117.2" r="4.9"></circle>
            <g id="Group" transform="translate(54.000000, 0.000000)">
                <path d="M46.1,55 C41.4,58.1 35.8,59.9 29.8,59.9 C13.3,59.9 0,46.6 0,30.1 C0,13.6 13.3,0.3 29.8,0.3 C46.3,0.3 59.6,13.6 59.6,30.1 C59.6,40.5 54.2,49.6 46.1,55" id="Shape" class="fill-primary-500" fill-rule="nonzero"></path>
                <path d="M39.1,58.4 C38.8,58.5 38.6,58.5 38.3,58.6 C35.6,59.4 32.7,59.9 29.7,59.9 C23.1,59.9 16.9,57.7 12,54.1" id="Shape" class="stroke-primary" stroke-width="3" stroke-linecap="round" stroke-linejoin="round"></path>
                <path d="M0.3,34.4 C0.1,33 0,31.5 0,30 C0,13.5 13.3,0.2 29.8,0.2 C46.3,0.2 59.6,13.5 59.6,30 C59.6,39.2 55.4,47.5 48.8,53" id="Shape" class="stroke-primary" stroke-width="3" stroke-linecap="round" stroke-linejoin="round"></path>
                <path d="M5.3,47.1 C5,46.6 4.6,46.1 4.3,45.6" id="Shape" class="stroke-primary" stroke-width="3" stroke-linecap="round" stroke-linejoin="round"></path>
                <g transform="translate(15.000000, 11.000000)" fill-rule="nonzero" id="Shape">
                    <path d="M14.7,36.2 C13.6,36.2 12.5,35.7 11.7,34.9 L2.9,26.1 C2.1,25.3 1.6,24.2 1.6,23.1 C1.6,22 2,20.9 2.9,20.1 C3.8,19.3 4.8,18.8 5.9,18.8 C7,18.8 8.1,19.2 8.9,20.1 L10.4,21.6 L10.4,6.2 C10.4,3.8 12.3,1.9 14.7,1.9 C17.1,1.9 19,3.8 19,6.2 L19,21.6 L20.5,20.1 C21.3,19.3 22.4,18.8 23.5,18.8 C24.6,18.8 25.7,19.2 26.5,20.1 C27.3,20.9 27.8,22 27.8,23.1 C27.8,24.2 27.4,25.3 26.5,26.1 L17.7,34.9 C17,35.8 15.9,36.2 14.7,36.2 Z" class="fill-neutral"></path>
                    <path d="M14.7,3.3 C16.2,3.3 17.5,4.6 17.5,6.1 L17.5,25.2 L21.5,21.2 C22,20.7 22.8,20.4 23.5,20.4 C24.2,20.4 24.9,20.7 25.5,21.2 C26.1,21.7 26.3,22.5 26.3,23.2 C26.3,23.9 26,24.6 25.5,25.2 L16.7,34 C16.2,34.5 15.5,34.8 14.7,34.8 C13.9,34.8 13.2,34.5 12.7,34 L3.9,25.2 C2.8,24.1 2.8,22.3 3.9,21.2 C4.4,20.7 5.2,20.4 5.9,20.4 C6.6,20.4 7.3,20.7 7.9,21.2 L11.9,25.2 L11.9,6.1 C12,4.6 13.2,3.3 14.7,3.3 Z M14.7,0.3 C11.5,0.3 8.9,2.9 8.9,6.1 L8.9,18.2 C8,17.7 7,17.4 5.9,17.4 C4.4,17.4 2.9,18 1.8,19.1 C-0.5,21.4 -0.5,25 1.8,27.3 L10.6,36.1 C11.7,37.2 13.2,37.8 14.7,37.8 C16.2,37.8 17.7,37.2 18.8,36.1 L27.6,27.3 C28.7,26.2 29.3,24.7 29.3,23.2 C29.3,21.7 28.7,20.2 27.6,19.1 C26.5,18 25,17.4 23.5,17.4 C22.4,17.4 21.4,17.7 20.5,18.2 L20.5,6.1 C20.5,2.9 17.9,0.3 14.7,0.3 Z" class="fill-primary"></path>
                </g>
            </g>
        </g>
    </g>
</svg>
